garage.svg

<svg fill="currentColor" viewBox="0 0 24 24"><path d="M19 20h-2v-9H7v9H5V9l7-4 7 4zM8 12h8v2H8zm0 3h8v2H8zm8 3v2H8v-2z"/></svg>

<svg  viewBox="0 0 24 24" fill="currentColor"><path  d="M19,20H17V11H7V20H5V9L12,5L19,9V20M8,12H16V14H8V12M8,15H16V17H8V15M16,18V20H8V18H16Z"/></svg>
